!!!COM: Robert Schumann
!!!CNT: Deutsch
!!!TXO: Deutsch
!!!OTL: "Du nennst mich armes Ma2dchen"
!!!LYR: Elizabeth Kulmann
!!!OPR: Sieben Lieder
!!!OPS: Op. 104
!!!ONM: No. 3
!!!ENC: Leigh VanHandel
!!!YOR: Schumann Lieder - Max Friedlaender, ed.,
!!!YOR: New York: C. F. Peters, Vol. 3
!!!ODT: 1851/
**kern	**silbe
*staff1	*
*clefG2	*
*k[b-e-]	*
*M3/4	*
*MM[Nicht schnell]	*
=0	=0
2r	.
{4d	{Du
=1	=1
8.g	nennst
16g	mich
4.cc	ar-
8cc	-mes
=2	=2
4dd	Ma2d-
4a}	-chen;}
8r	.
{8dd	{du
=3	=3
4.b-	irrst,
8g	ich
8a	bin
8b-	nicht
=4	=4
4g}	arm.}
4r	.
{4b-	{Ent-
=5	=5
8.b-	-reiss'
16f	dich,
4.b-	Neu-
8a	-gier
=6	=6
4cc	hal-
8b-}	-ber,}
{8b-	{ein-
8f#	-mal
8g	des
=7	=7
2f	Schla-
4a	-fes
=8	=8
4cc	Arm,
4b-}	|}
{4b-	{und
=9	=9
4.ee-	schau'
8dd	mein
8ff	nied-
8ee-	-res
=10	=10
4gg	Hu2tt-
8bn}	-chen,}
{8b	{wenn
8.b	sich
16b	die
=11	=11
8.dd	Son-
16cc	-ne
4.cc	hold
8b-	am
=12	=12
8.b-	Mor-
16a-	-gen-
8g	-him-
8f	-mel
8en	he-
8f}	-bet:}
=13	=13
8r	.
{8b-	{sein
8ff	Dach
8b-	ist
8.cc	rei-
16dd	-nes
=14	=14
2ee-}	Gold!}
{4ee-	{Komm'
=15	=15
8dd	A-
8a	-bends,
4.a	wann
8cc	die
=16	=16
4cc	Son-
8b-	-ne
8b-	be-
8a	-reits
8g	zum
=17	=17
8g	Mee-
8f#	-re
8f#}	sinkt,}
{8dd	{und
8dd	sieh
8dd	mein
=18	=18
2g	ein-
4b-	-zig
=19	=19
4b-	Fen-
8a}	-ster,}
{8a	{wie's
8cc	von
8ee-	To-
=20	=20
8.ee-	-pa-
16f#	-sen
4f#}	blinkt!}
8r	.
{8d	{Du
=21	=21
8g	nennst
8g	mich
4.cc#	ar-
8cc#	-mes
=22	=22
4dd	Ma2d-
4a}	-chen;}
8r	.
{8dd	{du
=23	=23
4.b-	irrst,
8g	ich
8a	bin
8b-	nicht
=24	=24
2g}	arm.}
4r	.
==	==
*-	*-
